img/sun-mini.svg

<?xml version="1.0" encoding="UTF-8"?>
<svg width="24px" height="24px" enable-background="new 0 0 240 240" version="1.1" viewBox="0 0 240 240" xml:space="preserve" xmlns="http://www.w3.org/2000/svg">
<g fill="#dbcda5">
<path d="m120 189.7c-38.492 0-69.696-31.205-69.696-69.697s31.204-69.697 69.696-69.697c38.494 0 69.699 31.205 69.699 69.697s-31.205 69.697-69.699 69.697zm83.975-49.697 36.025-20-36.025-20v40zm-167.95-40-36.025 20 36.025 20v-40zm83.975 140 20-36.025h-40l20 36.025zm0-240-20 36.025h40l-20-36.025zm-73.519 165.24-11.333 39.615 39.616-11.33-28.283-28.285zm118.76-118.76 28.283 28.285 11.332-39.613-39.615 11.328zm-130.09-11.329 11.332 39.614 28.283-28.285-39.615-11.329zm130.09 158.38 39.615 11.33-11.332-39.615-28.283 28.285z"/>
</g>
</svg>

<?xml version="1.0" encoding="iso-8859-1"?>
<svg version="1.1" xmlns="http://www.w3.org/2000/svg" xmlns:xlink="http://www.w3.org/1999/xlink" x="0px" y="0px"
viewBox="0 0 240 240" style="enable-background:new 0 0 240 240;" xml:space="preserve" width="24px" height="24px">
<g fill="#dbcda5">
<path d="M120,189.697c-38.492,0-69.696-31.205-69.696-69.697S81.508,50.303,120,50.303c38.494,0,69.699,31.205,69.699,69.697
S158.494,189.697,120,189.697z M203.975,140L240,120l-36.025-20V140z M36.025,100L0,120l36.025,20V100z M120,240l20-36.025h-40
L120,240z M120,0l-20,36.025h40L120,0z M46.481,165.238l-11.333,39.615l39.616-11.33L46.481,165.238z M165.238,46.477l28.283,28.285
l11.332-39.613L165.238,46.477z M35.148,35.148L46.48,74.762l28.283-28.285L35.148,35.148z M165.238,193.523l39.615,11.33
l-11.332-39.615L165.238,193.523z"/>
</g>
</svg>
